X:1
T:Rose Room
C:1917 - Art Hickman / Harry Williams
Z:Copyright © www.realbook.site
L:1/8
M:2/2
I:linebreak $
K:F
V:1 treble nm=" " snm=" "
V:1
 C2 C2 ^C2 |:"G7" D4 A4 |"C7" z C D_E =E A2 E |"F" G8 | F8 |$"F7" F8 | z F G^G A d2 A |"Bb" c8 | %8
 B8 |$"Bbm" B8- | B2 FG B F2 G |"F" A8 |1$"D7" C8 |"G7" =B,4 B,4- | B,2 DE FG A2 |"C7" G8 | %16
 z2 C2 C2 ^C2 :|2$"D7" =c2 =C2 C2 ^C2 ||"G7" D4 A4 |"C7" z C D_E =E c2 A |"F" F8- | F2 z2 z4 |] %22

